X:57
T:Cercle circassien - Niestrich (R. Robert)
M:6/8
L:1/8
K:C
Ace d2d|dfa e2e|Ace dfa|e2e e3|\
Ace d2d|dfa e2e|Ace c'2b|a3-a3:|
|:c'bc' aba| eae faf|faf efe|dcB c2A|\
c'bc' aba| eae faf|faf efe|dcB A3:|
